X: 4793
T: Boys Of The Lake, The
R: reel
M: 4/4
K: Gmajor
G2 BG AGBG|G2 (3Bcd g2 g2|fAAG FG A2|BcAF GFED|
G2 BG AGBG|G2 (3Bcd g2 fg|ecAG FG A2|1 BcAF G2 DG:|2 BcAF G2 G2||
(3Bcd ef gfed|(3Bcd ef g2 g2|(3Bcd ef g2 dg|egdc BG G2|
(3Bcd ef gfed|Bdef g2 ga|bgag gfed|1 (3Bcd ef gfed:|2 (3Bcd ef gedB|G2||

